assets/Logo/MB--Logo--CombH-Circle--White.svg

<svg height="660" viewBox="0 0 2124 660" width="2124" xmlns="http://www.w3.org/2000/svg"><g fill="none" fill-rule="evenodd"><g transform="translate(30 30)"><circle cx="300" cy="300" fill="#1c68f3" r="300"/><path d="m480 230v100h-300v.001l-12.907363.000293c13.6612 60.675936 67.877706 105.998707 132.679911 105.998707 53.574191 0 99.91317-30.977625 122.082198-75.998136l58.145254-.000864v83.999c0 19.882251-16.117749 36-36 36h-288c-19.882251 0-36-16.117749-36-36v-214zm-92.673507 130.00167c-19.091757 27.912627-51.183733 46.229933-87.553945 46.229933s-68.462188-18.317306-87.553945-46.229933zm-164.326493-106.00167c-28.211891 0-51.551244 20.861818-55.432937 48.000334l30.686759.000209c3.374064-10.445337 13.177814-18.000543 24.746178-18.000543s21.372114 7.555206 24.746178 18.000543l30.686759-.000209c-3.881693-27.138516-27.221046-48.000334-55.432937-48.000334zm154 0c-28.211891 0-51.551244 20.861818-55.432937 48.000334l30.686759.000209c3.374064-10.445337 13.177814-18.000543 24.746178-18.000543s21.372114 7.555206 24.746178 18.000543l30.686759-.000209c-3.881693-27.138516-27.221046-48.000334-55.432937-48.000334zm67-134c19.882251 0 36 16.117749 36 36v44h-360v-44c0-19.882251 16.117749-36 36-36z" fill="#fff"/></g><path d="m1638.29336 247c54.47752 0 116.35974 21.208577 120.0621 89.076023h-76.16274c-1.58672-19.617933-19.56959-28.631579-43.37045-28.631579-22.21413 0-32.26338 8.483431-32.26338 18.557505 0 8.483431 6.34689 16.436647 26.44539 20.148148l48.13062 7.953217c48.13062 9.013645 79.8651 32.34308 79.8651 77.94152 0 59.384016-53.4197 86.955166-120.0621 86.955166-67.1713 0-121.64882-28.101365-126.9379-96.499025l76.16274.530214c3.70236 22.269006 22.21413 32.34308 49.18844 32.34308 22.74304 0 36.49464-6.892788 36.49464-18.02729 0-8.483431-7.93361-15.376219-24.85867-18.027291l-51.83297-9.013645c-44.42827-7.423002-75.10493-32.34308-75.10493-77.411306 0-54.081872 46.01499-85.894737 114.24411-85.894737zm-321.04896 1c27.98321 0 51.21456 7.41502 70.22202 19.596838v-13.770751h85.53358v256.87747h-85.53358v-14.300395c-19.00746 12.181818-42.23881 19.596838-70.22202 19.596838-69.16604 0-127.2444-57.731225-127.2444-134 0-76.798419 58.07836-134 127.2444-134zm-500.997806-98 128.253406 192.710294 127.72343-192.710294h66.77657v361h-89.5654v-181.030882l-80.025881 123.695588v.530882h-49.817438v-.530882l-80.555859-124.757353.529973 182.092647h-89.565395v-361zm1077.553406-15v215.538028l89.50741-96.383098h102.21852l-97.45186 104.856338 105.92593 151.988732h-102.74815l-61.43704-88.969014-36.01481 38.659155v50.309859h-85.8v-376zm-559.66007 182.913043c-34.84702 0-60.1903 28.600791-60.1903 64.086957s25.34328 63.557312 60.1903 63.557312c19.00746 0 37.48694-5.296442 53.32649-23.833992v-79.44664c-15.83955-18.53755-34.31903-24.363637-53.32649-24.363637z" fill="#fff" fill-rule="nonzero"/></g></svg>

<?xml version="1.0" encoding="UTF-8"?>
<svg width="2124px" height="660px" viewBox="0 0 2124 660" version="1.1" xmlns="http://www.w3.org/2000/svg" xmlns:xlink="http://www.w3.org/1999/xlink">
    <title>MB--Logo--CombH-Circle--White</title>
    <g id="MB--Logo--CombH-Circle--White" stroke="none" stroke-width="1" fill="none" fill-rule="evenodd">
        <g id="Base-logo" transform="translate(30.000000, 30.000000)">
            <circle id="Oval" fill="#1C68F3" cx="300" cy="300" r="300"></circle>
            <path d="M480,230 L480,330 L180,330 L180,330.001 L167.092637,330.001293 C180.753837,390.677229 234.970343,436 299.772548,436 C353.346739,436 399.685718,405.022375 421.854746,360.001864 L421.854746,360.001864 L480,360.001 L480,444 C480,463.882251 463.882251,480 444,480 L156,480 C136.117749,480 120,463.882251 120,444 L120,230 L480,230 Z M387.326493,360.00167 C368.234736,387.914297 336.14276,406.231603 299.772548,406.231603 C263.402336,406.231603 231.31036,387.914297 212.218603,360.00167 L212.218603,360.00167 Z M223,254 C194.788109,254 171.448756,274.861818 167.567063,302.000334 L167.567063,302.000334 L198.253822,302.000543 C201.627886,291.555206 211.431636,284 223,284 C234.568364,284 244.372114,291.555206 247.746178,302.000543 L247.746178,302.000543 L278.432937,302.000334 C274.551244,274.861818 251.211891,254 223,254 Z M377,254 C348.788109,254 325.448756,274.861818 321.567063,302.000334 L321.567063,302.000334 L352.253822,302.000543 C355.627886,291.555206 365.431636,284 377,284 C388.568364,284 398.372114,291.555206 401.746178,302.000543 L401.746178,302.000543 L432.432937,302.000334 C428.551244,274.861818 405.211891,254 377,254 Z M444,120 C463.882251,120 480,136.117749 480,156 L480,200 L120,200 L120,156 C120,136.117749 136.117749,120 156,120 L444,120 Z" id="mask-icon--book--black" fill="#FFFFFF"></path>
        </g>
        <path d="M1638.29336,247 C1692.77088,247 1754.6531,268.208577 1758.35546,336.076023 L1682.19272,336.076023 C1680.606,316.45809 1662.62313,307.444444 1638.82227,307.444444 C1616.60814,307.444444 1606.55889,315.927875 1606.55889,326.001949 C1606.55889,334.48538 1612.90578,342.438596 1633.00428,346.150097 L1681.1349,354.103314 C1729.26552,363.116959 1761,386.446394 1761,432.044834 C1761,491.42885 1707.5803,519 1640.9379,519 C1573.7666,519 1519.28908,490.898635 1514,422.500975 L1590.16274,423.031189 C1593.8651,445.300195 1612.37687,455.374269 1639.35118,455.374269 C1662.09422,455.374269 1675.84582,448.481481 1675.84582,437.346979 C1675.84582,428.863548 1667.91221,421.97076 1650.98715,419.319688 L1599.15418,410.306043 C1554.72591,402.883041 1524.04925,377.962963 1524.04925,332.894737 C1524.04925,278.812865 1570.06424,247 1638.29336,247 Z M1317.2444,248 C1345.22761,248 1368.45896,255.41502 1387.46642,267.596838 L1387.46642,253.826087 L1473,253.826087 L1473,510.703557 L1387.46642,510.703557 L1387.46642,496.403162 C1368.45896,508.58498 1345.22761,516 1317.2444,516 C1248.07836,516 1190,458.268775 1190,382 C1190,305.201581 1248.07836,248 1317.2444,248 Z M816.246594,150 L944.5,342.710294 L1072.22343,150 L1139,150 L1139,511 L1049.4346,511 L1049.4346,329.969118 L969.408719,453.664706 L969.408719,454.195588 L919.591281,454.195588 L919.591281,453.664706 L839.035422,328.907353 L839.565395,511 L750,511 L750,150 L816.246594,150 Z M1893.8,135 L1893.8,350.538028 L1983.30741,254.15493 L2085.52593,254.15493 L1988.07407,359.011268 L2094,511 L1991.25185,511 L1929.81481,422.030986 L1893.8,460.690141 L1893.8,511 L1808,511 L1808,135 L1893.8,135 Z M1334.13993,317.913043 C1299.29291,317.913043 1273.94963,346.513834 1273.94963,382 C1273.94963,417.486166 1299.29291,445.557312 1334.13993,445.557312 C1353.14739,445.557312 1371.62687,440.26087 1387.46642,421.72332 L1387.46642,342.27668 C1371.62687,323.73913 1353.14739,317.913043 1334.13993,317.913043 Z" id="形状结合" fill="#FFFFFF" fill-rule="nonzero"></path>
    </g>
</svg>
